web/src/assets/logo.svg

<svg id="Capa_1" enable-background="new 0 0 512 512" height="512" viewBox="0 0 512 512" width="512" xmlns="http://www.w3.org/2000/svg"><g><g><path d="m440.185 422.324h-47.25l-1.449 1.752 8.122 32.79 1.91 1.541h29.583l2.44-1.541 8.123-32.79z" fill="#dbedff"/><path d="m415.334 422.324h-22.399l-1.449 1.752 8.122 32.79 1.91 1.541h17.616z" fill="#b5dcff"/><path d="m399.608 456.866 8.643 34.895c2.151 8.685 14.496 8.685 16.647 0l8.643-34.895z" fill="#8bcaff"/><path d="m418.972 456.866h-19.364l8.643 34.895c1.788 7.219 10.614 8.431 14.78 3.649z" fill="#64a6f4"/><path d="m346.506 88.7-12.405-5.868h-284.5l-8.708 5.868v403.146c0 6.792 5.556 12.348 12.348 12.348h280.917c6.792 0 12.348-5.557 12.348-12.348z" fill="#dbedff"/><path d="m76.643 491.845v-403.145l8.708-5.868h-35.75l-8.708 5.868v403.146c0 6.792 5.556 12.348 12.348 12.348h35.75c-6.791-.001-12.348-5.557-12.348-12.349z" fill="#b5dcff"/><path d="m334.158 31.718h-280.917c-6.792 0-12.348 5.557-12.348 12.348v44.634h305.612v-44.634c.001-6.791-5.556-12.348-12.347-12.348z" fill="#ff8086"/><path d="m88.991 31.718h-35.75c-6.792 0-12.348 5.557-12.348 12.348v44.634h35.75v-44.634c0-6.791 5.557-12.348 12.348-12.348z" fill="#e5646e"/><path d="m420.575 31.718h-8c-6.6 0-12 5.4-12 12v32.321l1.089 1.618h30.438l.474-1.618v-32.321c-.001-6.6-5.401-12-12.001-12z" fill="#dbedff"/><path d="m416.575 43.718c0-5.197 3.354-9.637 8-11.296-1.254-.448-2.597-.704-4-.704h-8c-6.6 0-12 5.4-12 12v32.321l1.089 1.618h16l-1.089-1.618z" fill="#b5dcff"/><path d="m392.601 228.407-2.605 3.049v188.484c0 3.582 2.904 6.486 6.486 6.486h40.186c3.583 0 6.486-2.904 6.486-6.486v-188.483l-3.053-3.049h-47.5z" fill="#477b9e"/><path d="m416.575 419.94v-188.483l2.605-3.049h-26.579l-2.605 3.049v188.483c0 3.582 2.904 6.486 6.486 6.486h26.579c-3.583 0-6.486-2.904-6.486-6.486z" fill="#3f6d8e"/><path d="m430.785 75.894h-28.422c-6.803 0-12.368 5.566-12.368 12.368v143.195h53.158v-143.195c.001-6.803-5.565-12.368-12.368-12.368z" fill="#3f6d8e"/><path d="m428.943 75.894h-26.579c-6.803 0-12.368 5.566-12.368 12.368v143.195h26.579v-143.195c0-6.803 5.565-12.368 12.368-12.368z" fill="#365e7d"/></g><g><path d="m81.729 0c-4.143 0-7.5 3.358-7.5 7.5v17.024h-21.055c-10.944 0-19.848 8.904-19.848 19.848v447.779c0 10.944 8.903 19.848 19.848 19.848h280.917c10.944 0 19.848-8.904 19.848-19.848 0-2.637 0-433.814 0-447.779 0-10.944-8.903-19.848-19.848-19.848h-21.055v-17.024c0-4.142-3.357-7.5-7.5-7.5s-7.5 3.358-7.5 7.5v17.024h-29.762v-17.024c0-4.142-3.357-7.5-7.5-7.5s-7.5 3.358-7.5 7.5v17.024h-29.761v-17.024c0-4.142-3.357-7.5-7.5-7.5s-7.5 3.358-7.5 7.5v17.024h-29.762v-17.024c0-4.142-3.357-7.5-7.5-7.5s-7.5 3.358-7.5 7.5v17.024h-29.761v-17.024c0-4.142-3.357-7.5-7.5-7.5s-7.5 3.358-7.5 7.5v17.024h-29.761v-17.024c0-4.142-3.358-7.5-7.5-7.5zm37.261 39.524v17.024c0 4.142 3.357 7.5 7.5 7.5s7.5-3.358 7.5-7.5v-17.024h29.762v17.024c0 4.142 3.357 7.5 7.5 7.5s7.5-3.358 7.5-7.5v-17.024h29.762v17.024c0 4.142 3.357 7.5 7.5 7.5s7.5-3.358 7.5-7.5v-17.024h29.761v17.024c0 4.142 3.357 7.5 7.5 7.5s7.5-3.358 7.5-7.5v-17.024h29.762v17.024c0 4.142 3.357 7.5 7.5 7.5s7.5-3.358 7.5-7.5v-17.024h21.055c2.628 0 4.848 2.22 4.848 4.848v37.134h-127.807c-4.143 0-7.5 3.358-7.5 7.5s3.357 7.5 7.5 7.5h127.806v395.646c0 2.628-2.22 4.848-4.848 4.848h-280.917c-2.628 0-4.848-2.22-4.848-4.848v-395.646h127.807c4.143 0 7.5-3.358 7.5-7.5s-3.357-7.5-7.5-7.5h-127.807v-37.133c0-2.628 2.22-4.848 4.848-4.848h21.055v17.024c0 4.142 3.357 7.5 7.5 7.5s7.5-3.358 7.5-7.5v-17.025z"/><path d="m95.174 191.769h-13.445c-4.143 0-7.5 3.358-7.5 7.5s3.357 7.5 7.5 7.5h13.445c4.143 0 7.5-3.358 7.5-7.5s-3.358-7.5-7.5-7.5z"/><path d="m95.174 159.273h-13.445c-4.143 0-7.5 3.358-7.5 7.5s3.357 7.5 7.5 7.5h13.445c4.143 0 7.5-3.358 7.5-7.5s-3.358-7.5-7.5-7.5z"/><path d="m95.174 126.778h-13.445c-4.143 0-7.5 3.358-7.5 7.5s3.357 7.5 7.5 7.5h13.445c4.143 0 7.5-3.358 7.5-7.5s-3.358-7.5-7.5-7.5z"/><path d="m95.174 289.253h-13.445c-4.143 0-7.5 3.358-7.5 7.5s3.357 7.5 7.5 7.5h13.445c4.143 0 7.5-3.358 7.5-7.5s-3.358-7.5-7.5-7.5z"/><path d="m95.174 256.758h-13.445c-4.143 0-7.5 3.358-7.5 7.5s3.357 7.5 7.5 7.5h13.445c4.143 0 7.5-3.358 7.5-7.5s-3.358-7.5-7.5-7.5z"/><path d="m95.174 224.263h-13.445c-4.143 0-7.5 3.358-7.5 7.5s3.357 7.5 7.5 7.5h13.445c4.143 0 7.5-3.358 7.5-7.5s-3.358-7.5-7.5-7.5z"/><path d="m95.174 386.738h-13.445c-4.143 0-7.5 3.358-7.5 7.5s3.357 7.5 7.5 7.5h13.445c4.143 0 7.5-3.358 7.5-7.5s-3.358-7.5-7.5-7.5z"/><path d="m95.174 354.243h-13.445c-4.143 0-7.5 3.358-7.5 7.5s3.357 7.5 7.5 7.5h13.445c4.143 0 7.5-3.358 7.5-7.5s-3.358-7.5-7.5-7.5z"/><path d="m95.174 321.748h-13.445c-4.143 0-7.5 3.358-7.5 7.5s3.357 7.5 7.5 7.5h13.445c4.143 0 7.5-3.358 7.5-7.5s-3.358-7.5-7.5-7.5z"/><path d="m95.174 451.728h-13.445c-4.143 0-7.5 3.358-7.5 7.5s3.357 7.5 7.5 7.5h13.445c4.143 0 7.5-3.358 7.5-7.5s-3.358-7.5-7.5-7.5z"/><path d="m95.174 419.233h-13.445c-4.143 0-7.5 3.358-7.5 7.5s3.357 7.5 7.5 7.5h13.445c4.143 0 7.5-3.358 7.5-7.5s-3.358-7.5-7.5-7.5z"/><path d="m305.536 191.769h-179.046c-4.143 0-7.5 3.358-7.5 7.5s3.357 7.5 7.5 7.5h179.046c4.143 0 7.5-3.358 7.5-7.5s-3.357-7.5-7.5-7.5z"/><path d="m305.536 159.273h-179.046c-4.143 0-7.5 3.358-7.5 7.5s3.357 7.5 7.5 7.5h179.046c4.143 0 7.5-3.358 7.5-7.5s-3.357-7.5-7.5-7.5z"/><path d="m118.99 134.278c0 4.142 3.357 7.5 7.5 7.5h179.046c4.143 0 7.5-3.358 7.5-7.5s-3.357-7.5-7.5-7.5h-179.046c-4.142 0-7.5 3.358-7.5 7.5z"/><path d="m305.536 289.253h-179.046c-4.143 0-7.5 3.358-7.5 7.5s3.357 7.5 7.5 7.5h179.046c4.143 0 7.5-3.358 7.5-7.5s-3.357-7.5-7.5-7.5z"/><path d="m305.536 256.758h-179.046c-4.143 0-7.5 3.358-7.5 7.5s3.357 7.5 7.5 7.5h179.046c4.143 0 7.5-3.358 7.5-7.5s-3.357-7.5-7.5-7.5z"/><path d="m305.536 224.263h-179.046c-4.143 0-7.5 3.358-7.5 7.5s3.357 7.5 7.5 7.5h179.046c4.143 0 7.5-3.358 7.5-7.5s-3.357-7.5-7.5-7.5z"/><path d="m305.536 386.738h-179.046c-4.143 0-7.5 3.358-7.5 7.5s3.357 7.5 7.5 7.5h179.046c4.143 0 7.5-3.358 7.5-7.5s-3.357-7.5-7.5-7.5z"/><path d="m305.536 354.243h-179.046c-4.143 0-7.5 3.358-7.5 7.5s3.357 7.5 7.5 7.5h179.046c4.143 0 7.5-3.358 7.5-7.5s-3.357-7.5-7.5-7.5z"/><path d="m305.536 321.748h-179.046c-4.143 0-7.5 3.358-7.5 7.5s3.357 7.5 7.5 7.5h179.046c4.143 0 7.5-3.358 7.5-7.5s-3.357-7.5-7.5-7.5z"/><path d="m305.536 451.728h-179.046c-4.143 0-7.5 3.358-7.5 7.5s3.357 7.5 7.5 7.5h179.046c4.143 0 7.5-3.358 7.5-7.5s-3.357-7.5-7.5-7.5z"/><path d="m305.536 419.233h-179.046c-4.143 0-7.5 3.358-7.5 7.5s3.357 7.5 7.5 7.5h179.046c4.143 0 7.5-3.358 7.5-7.5s-3.357-7.5-7.5-7.5z"/><path d="m420.508 24.524h-8c-10.752 0-19.5 8.748-19.5 19.5v26.994c-6.285 3.34-10.579 9.95-10.579 17.55v7.938h-1.255c-4.143 0-7.5 3.358-7.5 7.5s3.357 7.5 7.5 7.5h1.255v308.74c0 2.64.749 5.102 2.025 7.211l16.45 66.413c1.807 7.296 8.073 12.21 15.604 12.21 7.541 0 13.8-4.925 15.604-12.21 2.631-10.621 14.421-58.219 16.45-66.413 1.276-2.109 2.025-4.571 2.025-7.211v-68.753c0-4.142-3.357-7.5-7.5-7.5s-7.5 3.358-7.5 7.5v67.739h-38.158v-179.97h38.158v77.23c0 4.142 3.357 7.5 7.5 7.5s7.5-3.358 7.5-7.5c0-8.964 0-195.802 0-204.326 7.533 2.085 13.087 8.984 13.087 17.172v102.424c0 4.142 3.357 7.5 7.5 7.5s7.5-3.358 7.5-7.5v-102.423c0-16.492-12.224-30.178-28.087-32.486v-8.285c0-7.6-4.294-14.21-10.579-17.55v-26.994c0-10.752-8.748-19.5-19.5-19.5zm-2.957 465.741c-.08.325-.202.816-1.044.816-.841 0-.963-.491-1.043-.816l-6.339-25.592h14.765zm13.879-56.032-3.824 15.44h-22.196l-3.824-15.44zm-23.422-390.209c0-2.439 2.061-4.5 4.5-4.5h8c2.439 0 4.5 2.061 4.5 4.5v24.676h-17zm27.579 180.239h-38.158v-112.757h38.158zm0-127.757h-38.158v-7.938c0-2.639 2.229-4.868 4.868-4.868h28.421.002c2.638.001 4.867 2.23 4.867 4.868z"/></g></g></svg>

<?xml version="1.0" encoding="UTF-8" standalone="no"?>
<!DOCTYPE svg PUBLIC "-//W3C//DTD SVG 1.1//EN" "http://www.w3.org/Graphics/SVG/1.1/DTD/svg11.dtd">
<svg width="100%" height="100%" viewBox="0 0 512 512" version="1.1" xmlns="http://www.w3.org/2000/svg" xmlns:xlink="http://www.w3.org/1999/xlink" xml:space="preserve" xmlns:serif="http://www.serif.com/" style="fill-rule:evenodd;clip-rule:evenodd;stroke-linejoin:round;stroke-miterlimit:2;">
    <g transform="matrix(1,0,0,1,16,0)">
        <g>
            <path d="M440.185,422.324L392.935,422.324L391.486,424.076L399.608,456.866L401.518,458.407L431.101,458.407L433.541,456.866L441.664,424.076L440.185,422.324Z" style="fill:rgb(219,237,255);fill-rule:nonzero;"/>
            <path d="M415.334,422.324L392.935,422.324L391.486,424.076L399.608,456.866L401.518,458.407L419.134,458.407L415.334,422.324Z" style="fill:rgb(181,220,255);fill-rule:nonzero;"/>
            <path d="M399.608,456.866L408.251,491.761C410.402,500.446 422.747,500.446 424.898,491.761L433.541,456.866L399.608,456.866Z" style="fill:rgb(139,202,255);fill-rule:nonzero;"/>
            <path d="M418.972,456.866L399.608,456.866L408.251,491.761C410.039,498.98 418.865,500.192 423.031,495.41L418.972,456.866Z" style="fill:rgb(100,166,244);fill-rule:nonzero;"/>
            <path d="M346.506,88.7L334.101,82.832L49.601,82.832L40.893,88.7L40.893,491.846C40.893,498.638 46.449,504.194 53.241,504.194L334.158,504.194C340.95,504.194 346.506,498.637 346.506,491.846L346.506,88.7Z" style="fill:rgb(219,237,255);fill-rule:nonzero;"/>
            <path d="M76.643,491.845L76.643,88.7L85.351,82.832L49.601,82.832L40.893,88.7L40.893,491.846C40.893,498.638 46.449,504.194 53.241,504.194L88.991,504.194C82.2,504.193 76.643,498.637 76.643,491.845Z" style="fill:rgb(181,220,255);fill-rule:nonzero;"/>
            <path d="M334.158,31.718L53.241,31.718C46.449,31.718 40.893,37.275 40.893,44.066L40.893,88.7L346.505,88.7L346.505,44.066C346.506,37.275 340.949,31.718 334.158,31.718Z" style="fill:rgb(255,128,134);fill-rule:nonzero;"/>
            <path d="M88.991,31.718L53.241,31.718C46.449,31.718 40.893,37.275 40.893,44.066L40.893,88.7L76.643,88.7L76.643,44.066C76.643,37.275 82.2,31.718 88.991,31.718Z" style="fill:rgb(229,100,110);fill-rule:nonzero;"/>
            <path d="M420.575,31.718L412.575,31.718C405.975,31.718 400.575,37.118 400.575,43.718L400.575,76.039L401.664,77.657L432.102,77.657L432.576,76.039L432.576,43.718C432.575,37.118 427.175,31.718 420.575,31.718Z" style="fill:rgb(219,237,255);fill-rule:nonzero;"/>
            <path d="M416.575,43.718C416.575,38.521 419.929,34.081 424.575,32.422C423.321,31.974 421.978,31.718 420.575,31.718L412.575,31.718C405.975,31.718 400.575,37.118 400.575,43.718L400.575,76.039L401.664,77.657L417.664,77.657L416.575,76.039L416.575,43.718Z" style="fill:rgb(181,220,255);fill-rule:nonzero;"/>
            <path d="M392.601,228.407L389.996,231.456L389.996,419.94C389.996,423.522 392.9,426.426 396.482,426.426L436.668,426.426C440.251,426.426 443.154,423.522 443.154,419.94L443.154,231.457L440.101,228.408L392.601,228.408L392.601,228.407Z" style="fill:rgb(71,123,158);fill-rule:nonzero;"/>
            <path d="M416.575,419.94L416.575,231.457L419.18,228.408L392.601,228.408L389.996,231.457L389.996,419.94C389.996,423.522 392.9,426.426 396.482,426.426L423.061,426.426C419.478,426.426 416.575,423.522 416.575,419.94Z" style="fill:rgb(63,109,142);fill-rule:nonzero;"/>
            <path d="M430.785,75.894L402.363,75.894C395.56,75.894 389.995,81.46 389.995,88.262L389.995,231.457L443.153,231.457L443.153,88.262C443.154,81.459 437.588,75.894 430.785,75.894Z" style="fill:rgb(63,109,142);fill-rule:nonzero;"/>
            <path d="M428.943,75.894L402.364,75.894C395.561,75.894 389.996,81.46 389.996,88.262L389.996,231.457L416.575,231.457L416.575,88.262C416.575,81.459 422.14,75.894 428.943,75.894Z" style="fill:rgb(54,94,125);fill-rule:nonzero;"/>
        </g>
        <g>
            <path d="M81.729,0C77.586,0 74.229,3.358 74.229,7.5L74.229,24.524L53.174,24.524C42.23,24.524 33.326,33.428 33.326,44.372L33.326,492.151C33.326,503.095 42.229,511.999 53.174,511.999L334.091,511.999C345.035,511.999 353.939,503.095 353.939,492.151L353.939,44.372C353.939,33.428 345.036,24.524 334.091,24.524L313.036,24.524L313.036,7.5C313.036,3.358 309.679,0 305.536,0C301.393,0 298.036,3.358 298.036,7.5L298.036,24.524L268.274,24.524L268.274,7.5C268.274,3.358 264.917,0 260.774,0C256.631,0 253.274,3.358 253.274,7.5L253.274,24.524L223.513,24.524L223.513,7.5C223.513,3.358 220.156,0 216.013,0C211.87,0 208.513,3.358 208.513,7.5L208.513,24.524L178.751,24.524L178.751,7.5C178.751,3.358 175.394,0 171.251,0C167.108,0 163.751,3.358 163.751,7.5L163.751,24.524L133.99,24.524L133.99,7.5C133.99,3.358 130.633,0 126.49,0C122.347,0 118.99,3.358 118.99,7.5L118.99,24.524L89.229,24.524L89.229,7.5C89.229,3.358 85.871,0 81.729,0ZM118.99,39.524L118.99,56.548C118.99,60.69 122.347,64.048 126.49,64.048C130.633,64.048 133.99,60.69 133.99,56.548L133.99,39.524L163.752,39.524L163.752,56.548C163.752,60.69 167.109,64.048 171.252,64.048C175.395,64.048 178.752,60.69 178.752,56.548L178.752,39.524L208.514,39.524L208.514,56.548C208.514,60.69 211.871,64.048 216.014,64.048C220.157,64.048 223.514,60.69 223.514,56.548L223.514,39.524L253.275,39.524L253.275,56.548C253.275,60.69 256.632,64.048 260.775,64.048C264.918,64.048 268.275,60.69 268.275,56.548L268.275,39.524L298.037,39.524L298.037,56.548C298.037,60.69 301.394,64.048 305.537,64.048C309.68,64.048 313.037,60.69 313.037,56.548L313.037,39.524L334.092,39.524C336.72,39.524 338.94,41.744 338.94,44.372L338.94,81.506L211.133,81.506C206.99,81.506 203.633,84.864 203.633,89.006C203.633,93.148 206.99,96.506 211.133,96.506L338.939,96.506L338.939,492.152C338.939,494.78 336.719,497 334.091,497L53.174,497C50.546,497 48.326,494.78 48.326,492.152L48.326,96.506L176.133,96.506C180.276,96.506 183.633,93.148 183.633,89.006C183.633,84.864 180.276,81.506 176.133,81.506L48.326,81.506L48.326,44.373C48.326,41.745 50.546,39.525 53.174,39.525L74.229,39.525L74.229,56.549C74.229,60.691 77.586,64.049 81.729,64.049C85.872,64.049 89.229,60.691 89.229,56.549L89.229,39.524L118.99,39.524Z" style="fill-rule:nonzero;"/>
            <path d="M95.174,191.769L81.729,191.769C77.586,191.769 74.229,195.127 74.229,199.269C74.229,203.411 77.586,206.769 81.729,206.769L95.174,206.769C99.317,206.769 102.674,203.411 102.674,199.269C102.674,195.127 99.316,191.769 95.174,191.769Z" style="fill-rule:nonzero;"/>
            <path d="M95.174,159.273L81.729,159.273C77.586,159.273 74.229,162.631 74.229,166.773C74.229,170.915 77.586,174.273 81.729,174.273L95.174,174.273C99.317,174.273 102.674,170.915 102.674,166.773C102.674,162.631 99.316,159.273 95.174,159.273Z" style="fill-rule:nonzero;"/>
            <path d="M95.174,126.778L81.729,126.778C77.586,126.778 74.229,130.136 74.229,134.278C74.229,138.42 77.586,141.778 81.729,141.778L95.174,141.778C99.317,141.778 102.674,138.42 102.674,134.278C102.674,130.136 99.316,126.778 95.174,126.778Z" style="fill-rule:nonzero;"/>
            <path d="M95.174,289.253L81.729,289.253C77.586,289.253 74.229,292.611 74.229,296.753C74.229,300.895 77.586,304.253 81.729,304.253L95.174,304.253C99.317,304.253 102.674,300.895 102.674,296.753C102.674,292.611 99.316,289.253 95.174,289.253Z" style="fill-rule:nonzero;"/>
            <path d="M95.174,256.758L81.729,256.758C77.586,256.758 74.229,260.116 74.229,264.258C74.229,268.4 77.586,271.758 81.729,271.758L95.174,271.758C99.317,271.758 102.674,268.4 102.674,264.258C102.674,260.116 99.316,256.758 95.174,256.758Z" style="fill-rule:nonzero;"/>
            <path d="M95.174,224.263L81.729,224.263C77.586,224.263 74.229,227.621 74.229,231.763C74.229,235.905 77.586,239.263 81.729,239.263L95.174,239.263C99.317,239.263 102.674,235.905 102.674,231.763C102.674,227.621 99.316,224.263 95.174,224.263Z" style="fill-rule:nonzero;"/>
            <path d="M95.174,386.738L81.729,386.738C77.586,386.738 74.229,390.096 74.229,394.238C74.229,398.38 77.586,401.738 81.729,401.738L95.174,401.738C99.317,401.738 102.674,398.38 102.674,394.238C102.674,390.096 99.316,386.738 95.174,386.738Z" style="fill-rule:nonzero;"/>
            <path d="M95.174,354.243L81.729,354.243C77.586,354.243 74.229,357.601 74.229,361.743C74.229,365.885 77.586,369.243 81.729,369.243L95.174,369.243C99.317,369.243 102.674,365.885 102.674,361.743C102.674,357.601 99.316,354.243 95.174,354.243Z" style="fill-rule:nonzero;"/>
            <path d="M95.174,321.748L81.729,321.748C77.586,321.748 74.229,325.106 74.229,329.248C74.229,333.39 77.586,336.748 81.729,336.748L95.174,336.748C99.317,336.748 102.674,333.39 102.674,329.248C102.674,325.106 99.316,321.748 95.174,321.748Z" style="fill-rule:nonzero;"/>
            <path d="M95.174,451.728L81.729,451.728C77.586,451.728 74.229,455.086 74.229,459.228C74.229,463.37 77.586,466.728 81.729,466.728L95.174,466.728C99.317,466.728 102.674,463.37 102.674,459.228C102.674,455.086 99.316,451.728 95.174,451.728Z" style="fill-rule:nonzero;"/>
            <path d="M95.174,419.233L81.729,419.233C77.586,419.233 74.229,422.591 74.229,426.733C74.229,430.875 77.586,434.233 81.729,434.233L95.174,434.233C99.317,434.233 102.674,430.875 102.674,426.733C102.674,422.591 99.316,419.233 95.174,419.233Z" style="fill-rule:nonzero;"/>
            <path d="M305.536,191.769L126.49,191.769C122.347,191.769 118.99,195.127 118.99,199.269C118.99,203.411 122.347,206.769 126.49,206.769L305.536,206.769C309.679,206.769 313.036,203.411 313.036,199.269C313.036,195.127 309.679,191.769 305.536,191.769Z" style="fill-rule:nonzero;"/>
            <path d="M305.536,159.273L126.49,159.273C122.347,159.273 118.99,162.631 118.99,166.773C118.99,170.915 122.347,174.273 126.49,174.273L305.536,174.273C309.679,174.273 313.036,170.915 313.036,166.773C313.036,162.631 309.679,159.273 305.536,159.273Z" style="fill-rule:nonzero;"/>
            <path d="M118.99,134.278C118.99,138.42 122.347,141.778 126.49,141.778L305.536,141.778C309.679,141.778 313.036,138.42 313.036,134.278C313.036,130.136 309.679,126.778 305.536,126.778L126.49,126.778C122.348,126.778 118.99,130.136 118.99,134.278Z" style="fill-rule:nonzero;"/>
            <path d="M305.536,289.253L126.49,289.253C122.347,289.253 118.99,292.611 118.99,296.753C118.99,300.895 122.347,304.253 126.49,304.253L305.536,304.253C309.679,304.253 313.036,300.895 313.036,296.753C313.036,292.611 309.679,289.253 305.536,289.253Z" style="fill-rule:nonzero;"/>
            <path d="M305.536,256.758L126.49,256.758C122.347,256.758 118.99,260.116 118.99,264.258C118.99,268.4 122.347,271.758 126.49,271.758L305.536,271.758C309.679,271.758 313.036,268.4 313.036,264.258C313.036,260.116 309.679,256.758 305.536,256.758Z" style="fill-rule:nonzero;"/>
            <path d="M305.536,224.263L126.49,224.263C122.347,224.263 118.99,227.621 118.99,231.763C118.99,235.905 122.347,239.263 126.49,239.263L305.536,239.263C309.679,239.263 313.036,235.905 313.036,231.763C313.036,227.621 309.679,224.263 305.536,224.263Z" style="fill-rule:nonzero;"/>
            <path d="M305.536,386.738L126.49,386.738C122.347,386.738 118.99,390.096 118.99,394.238C118.99,398.38 122.347,401.738 126.49,401.738L305.536,401.738C309.679,401.738 313.036,398.38 313.036,394.238C313.036,390.096 309.679,386.738 305.536,386.738Z" style="fill-rule:nonzero;"/>
            <path d="M305.536,354.243L126.49,354.243C122.347,354.243 118.99,357.601 118.99,361.743C118.99,365.885 122.347,369.243 126.49,369.243L305.536,369.243C309.679,369.243 313.036,365.885 313.036,361.743C313.036,357.601 309.679,354.243 305.536,354.243Z" style="fill-rule:nonzero;"/>
            <path d="M305.536,321.748L126.49,321.748C122.347,321.748 118.99,325.106 118.99,329.248C118.99,333.39 122.347,336.748 126.49,336.748L305.536,336.748C309.679,336.748 313.036,333.39 313.036,329.248C313.036,325.106 309.679,321.748 305.536,321.748Z" style="fill-rule:nonzero;"/>
            <path d="M305.536,451.728L126.49,451.728C122.347,451.728 118.99,455.086 118.99,459.228C118.99,463.37 122.347,466.728 126.49,466.728L305.536,466.728C309.679,466.728 313.036,463.37 313.036,459.228C313.036,455.086 309.679,451.728 305.536,451.728Z" style="fill-rule:nonzero;"/>
            <path d="M305.536,419.233L126.49,419.233C122.347,419.233 118.99,422.591 118.99,426.733C118.99,430.875 122.347,434.233 126.49,434.233L305.536,434.233C309.679,434.233 313.036,430.875 313.036,426.733C313.036,422.591 309.679,419.233 305.536,419.233Z" style="fill-rule:nonzero;"/>
            <path d="M420.508,24.524L412.508,24.524C401.756,24.524 393.008,33.272 393.008,44.024L393.008,71.018C386.723,74.358 382.429,80.968 382.429,88.568L382.429,96.506L381.174,96.506C377.031,96.506 373.674,99.864 373.674,104.006C373.674,108.148 377.031,111.506 381.174,111.506L382.429,111.506L382.429,420.246C382.429,422.886 383.178,425.348 384.454,427.457L400.904,493.87C402.711,501.166 408.977,506.08 416.508,506.08C424.049,506.08 430.308,501.155 432.112,493.87C434.743,483.249 446.533,435.651 448.562,427.457C449.838,425.348 450.587,422.886 450.587,420.246L450.587,351.493C450.587,347.351 447.23,343.993 443.087,343.993C438.944,343.993 435.587,347.351 435.587,351.493L435.587,419.232L397.429,419.232L397.429,239.262L435.587,239.262L435.587,316.492C435.587,320.634 438.944,323.992 443.087,323.992C447.23,323.992 450.587,320.634 450.587,316.492L450.587,112.166C458.12,114.251 463.674,121.15 463.674,129.338L463.674,231.762C463.674,235.904 467.031,239.262 471.174,239.262C475.317,239.262 478.674,235.904 478.674,231.762L478.674,129.339C478.674,112.847 466.45,99.161 450.587,96.853L450.587,88.568C450.587,80.968 446.293,74.358 440.008,71.018L440.008,44.024C440.008,33.272 431.26,24.524 420.508,24.524ZM417.551,490.265C417.471,490.59 417.349,491.081 416.507,491.081C415.666,491.081 415.544,490.59 415.464,490.265L409.125,464.673L423.89,464.673L417.551,490.265ZM431.43,434.233L427.606,449.673L405.41,449.673L401.586,434.233L431.43,434.233ZM408.008,44.024C408.008,41.585 410.069,39.524 412.508,39.524L420.508,39.524C422.947,39.524 425.008,41.585 425.008,44.024L425.008,68.7L408.008,68.7L408.008,44.024ZM435.587,224.263L397.429,224.263L397.429,111.506L435.587,111.506L435.587,224.263ZM435.587,96.506L397.429,96.506L397.429,88.568C397.429,85.929 399.658,83.7 402.297,83.7L430.72,83.7C433.358,83.701 435.587,85.93 435.587,88.568L435.587,96.506Z" style="fill-rule:nonzero;"/>
        </g>
    </g>
</svg>
